resources/haticons/SVG/settings_remote.svg

<!-- Generated by IcoMoon.io -->
<svg version="1.1" xmlns="http://www.w3.org/2000/svg" width="24" height="24" viewBox="0 0 24 24">
<title>settings_remote</title>
<path d="M12 0q4.641 0 7.781 3.234l-1.406 1.406q-2.625-2.625-6.375-2.625t-6.375 2.625l-1.406-1.406q3.234-3.234 7.781-3.234zM7.031 6.047q2.063-2.063 4.969-2.063t4.969 2.063l-1.406 1.406q-0.609-0.609-1.664-1.031t-1.898-0.422-1.898 0.422-1.664 1.031zM12 15q0.797 0 1.406-0.609t0.609-1.406-0.609-1.383-1.406-0.586-1.406 0.586-0.609 1.383 0.609 1.406 1.406 0.609zM15 9q0.422 0 0.703 0.281t0.281 0.703v12q0 0.422-0.281 0.727t-0.703 0.305h-6q-0.422 0-0.703-0.305t-0.281-0.727v-12q0-0.422 0.281-0.703t0.703-0.281h6z"></path>
</svg>

<svg xmlns="http://www.w3.org/2000/svg" width="24" height="24"><path d="M12 0q4.641 0 7.781 3.234L18.375 4.64Q15.75 2.015 12 2.015T5.625 4.64L4.219 3.234Q7.453 0 12 0zM7.031 6.047Q9.094 3.984 12 3.984t4.969 2.063l-1.406 1.406q-.609-.609-1.664-1.031T12.001 6t-1.898.422-1.664 1.031zM12 15q.797 0 1.406-.609t.609-1.406-.609-1.383T12 11.016t-1.406.586-.609 1.383.609 1.406T12 15zm3-6q.422 0 .703.281t.281.703v12q0 .422-.281.727t-.703.305H9q-.422 0-.703-.305t-.281-.727v-12q0-.422.281-.703T9 9h6z"/></svg>
